X: 4
T: The Peeler's Jacket
R: reel
M: 4/4
L: 1/8
K: Gmaj
GF |D2 BG DGBG |FGAB c2 Bc |defe dcde |fdcA BGAF |
D2 BG DGBG |FGAB c2 Bc |defe dcde |fdcA G2 ||
de |gfge d2 ef |gfga bgaf |gfge d2 eg |fdcA BG Gd |
gfge d2 ef |gfga bgaf |gbag fdde |fdcA G2|]


Tune 1343	Setting 25480

